X: 251
M: 3/2
L: 1/8
K: C
[|\
efg2 cde2 d2G2 | G2 d4 e2 d4 |]\
c2 f4 g2 a2f2 | a2gf e2f2 g4 |
c2 f4 g2 a2gf | e2d2 e2^c2 d4 |\
f2 e4 d4 e2 | c2de fedc d2G2 |\
f2ef def2 e2c2 | e2dc BcdB c4 |]

